brandFactory_export/2.Regular/(2)Euro_Moneda_2Regular.svg

<?xml version="1.0" encoding="UTF-8"?>
<svg width="24px" height="24px" viewBox="0 0 24 24" version="1.1" xmlns="http://www.w3.org/2000/svg" xmlns:xlink="http://www.w3.org/1999/xlink">
    <title>2.Regular/(2)Euro_Moneda_2Regular</title>
    <g id="Symbols" stroke="none" stroke-width="1" fill="none" fill-rule="evenodd">
        <g id="2.Regular/(2)Euro_Moneda_2Regular" fill="#5CB615" fill-rule="nonzero">
            <path d="M11.8084034,22.1747899 C18.6857143,22.1747899 22.1747899,18.6890756 22.1747899,11.8151261 C22.1747899,4.93445378 18.6890756,1.4487395 11.8084034,1.4487395 C4.93445378,1.4487395 1.4487395,4.93445378 1.4487395,11.8151261 C1.4487395,18.6890756 4.93445378,22.1747899 11.8084034,22.1747899 Z M11.8084034,0 C19.5361345,0 23.6235294,4.08403361 23.6235294,11.8151261 C23.6235294,19.5394958 19.5394958,23.6235294 11.8084034,23.6235294 C4.08403361,23.6235294 0,19.5394958 0,11.8151261 C0,4.08403361 4.08403361,0 11.8084034,0 Z M16.4672269,16.6285714 C16.8268908,16.4571429 17.2571429,16.6084034 17.4285714,16.9680672 C17.4285714,16.9714286 17.4319328,16.9714286 17.4319328,16.9747899 C17.6033613,17.3344538 17.4487395,17.7680672 17.0857143,17.9394958 L17.0823529,17.9394958 C16.0470588,18.4268908 14.789916,18.6722689 13.3411765,18.6722689 C9.57983193,18.6722689 7.18655462,16.994958 6.40672269,13.8957983 L5.06218487,13.8957983 C4.66218487,13.8957983 4.33613445,13.5731092 4.33613445,13.1697479 C4.33613445,12.7663866 4.65882353,12.4436975 5.06218487,12.4436975 L6.17478992,12.4436975 C6.14453782,12.1142857 6.13109244,11.7882353 6.12773109,11.4588235 C6.12773109,11.3109244 6.13781513,11.1697479 6.14453782,11.0252101 L5.06218487,11.0252101 C4.66218487,11.0117647 4.34957983,10.6756303 4.36638655,10.2756303 C4.37983193,9.89579832 4.68571429,9.59327731 5.06218487,9.57983193 L6.29579832,9.57983193 C6.9210084,6.12436975 9.36470588,4.24537815 13.3445378,4.24537815 C14.7731092,4.24537815 16.0201681,4.48403361 17.0453782,4.96134454 C17.4084034,5.12941176 17.5663866,5.55966387 17.3983193,5.92268908 C17.2302521,6.28571429 16.8,6.44369748 16.4369748,6.27563025 C15.6033613,5.88907563 14.5613445,5.69411765 13.3445378,5.69411765 C10.1647059,5.69411765 8.34285714,6.98487395 7.78487395,9.57983193 L12.1815126,9.57983193 C12.5815126,9.57983193 12.9042017,9.90252101 12.9042017,10.302521 C12.9042017,10.702521 12.5815126,11.0252101 12.1815126,11.0252101 L7.61008403,11.0252101 C7.60336134,11.1731092 7.58319328,11.3042017 7.58319328,11.4588235 C7.58319328,11.8117647 7.61680672,12.1277311 7.64705882,12.4436975 L12.1882353,12.4436975 C12.5882353,12.4436975 12.9142857,12.7663866 12.9142857,13.1697479 C12.9142857,13.5731092 12.5915966,13.8957983 12.1882353,13.8957983 L7.91260504,13.8957983 C8.60504202,16.1243697 10.3932773,17.2235294 13.3445378,17.2235294 C14.5781513,17.2268908 15.6268908,17.0252101 16.4672269,16.6285714 Z" id="(2)Euro_Moneda_2Regular"></path>
        </g>
    </g>
</svg>

<svg width="24" height="24" viewBox="0 0 24 24" xmlns="http://www.w3.org/2000/svg"><path d="M11.808 22.175c6.878 0 10.367-3.486 10.367-10.36 0-6.88-3.486-10.366-10.367-10.366-6.874 0-10.36 3.485-10.36 10.366 0 6.874 3.486 10.36 10.36 10.36zm0-22.175c7.728 0 11.816 4.084 11.816 11.815 0 7.724-4.085 11.809-11.816 11.809C4.084 23.624 0 19.539 0 11.815 0 4.084 4.084 0 11.808 0zm4.66 16.629a.72.72 0 01.96.34c0 .002.004.002.004.006a.724.724 0 01-.346.964h-.004c-1.035.488-2.292.733-3.74.733-3.762 0-6.155-1.677-6.935-4.776H5.062a.725.725 0 110-1.452h1.113a12.07 12.07 0 01-.047-.985c0-.148.01-.29.017-.434H5.062a.722.722 0 010-1.445h1.234c.625-3.456 3.069-5.335 7.049-5.335 1.428 0 2.675.239 3.7.716a.724.724 0 11-.608 1.315c-.834-.387-1.876-.582-3.092-.582-3.18 0-5.002 1.29-5.56 3.886h4.397a.722.722 0 110 1.445H7.61c-.007.148-.027.28-.027.434 0 .353.034.669.064.985h4.541a.725.725 0 110 1.452H7.913c.692 2.228 2.48 3.328 5.432 3.328 1.233.003 2.282-.199 3.122-.595z" fill="#5CB615" fill-rule="nonzero"/></svg>
